X: 6
T: The Dunmore Lasses
R: reel
M: 4/4
L: 1/8
K: Emin
E3 F G3 A | Be{a/}ed Be{a/}ed | E3 F G2 BG | A2 BA GEFD |
E3 F G3 A | Be{a/}ed e2 ef | gefd edBG | A2 BA GEFD :|
|: gfeg fedc | Be{a/}ed Be{a/}ed | g2 eg fedB | A2 BA GEFD |
g2eg fedc | Be{a/}ed e3 f | gefd edBG | A2 BA GEFD :|


Tune 462	Setting 23824

